resources/svg/github.svg

<svg xmlns="http://www.w3.org/2000/svg" viewBox="0 0 15 15" fill="currentColor"><path d="M9.35762 2.14496C8.13548 1.86102 6.86444 1.86102 5.6423 2.14497C4.93642 1.71169 4.39704 1.51286 4.00502 1.42909C3.79189 1.38354 3.62296 1.37216 3.4959 1.37556C3.43249 1.37725 3.38001 1.38261 3.33821 1.38905C3.31733 1.39226 3.29919 1.39573 3.28375 1.39911C3.27603 1.4008 3.26899 1.40247 3.26264 1.40408L3.25362 1.40643L3.2495 1.40756L3.24753 1.40811L3.24563 1.40865C3.24562 1.40865 3.24563 1.40864 3.24563 1.40865C3.2452 1.40884 3.24731 1.41452 3.38299 1.88895L3.24563 1.40865C3.1036 1.44926 2.9868 1.55061 2.92657 1.68549C2.75841 2.06202 2.66657 2.46816 2.65635 2.88041C2.64875 3.18677 2.68634 3.49199 2.76743 3.78633C2.55433 4.04445 2.3807 4.33349 2.25276 4.64407C2.08484 5.05173 1.99894 5.4885 1.99998 5.92939C2.00011 7.48194 2.45815 8.52582 3.23873 9.19657C3.78563 9.66653 4.45048 9.91658 5.11619 10.0598C5.00626 10.3652 4.97773 10.6883 4.99998 11.0176V11.6158C4.59263 11.7015 4.31135 11.6744 4.11082 11.6082C3.85884 11.525 3.66566 11.3578 3.48139 11.1175C3.38806 10.9959 3.30208 10.8623 3.21179 10.7161L3.15448 10.6228C3.08377 10.5073 3.00746 10.3828 2.93045 10.2692C2.73964 9.9878 2.45813 9.63616 2.00195 9.51639L1.51834 9.38942L1.2644 10.3566L1.74801 10.4836C1.82746 10.5045 1.93204 10.5786 2.10279 10.8304C2.16553 10.9229 2.22538 11.0206 2.29372 11.1321C2.31518 11.1671 2.33753 11.2036 2.36102 11.2417C2.45488 11.3936 2.56253 11.5627 2.68796 11.7262C2.94119 12.0563 3.28597 12.389 3.79742 12.5578C4.14883 12.6738 4.54603 12.7016 4.99998 12.6319V14.5C4.99998 14.7761 5.22384 15 5.49998 15H9.49998C9.77613 15 9.99998 14.7761 9.99998 14.5V10.9375C9.99998 10.6217 9.98623 10.333 9.89735 10.0636C10.5597 9.92381 11.2193 9.67353 11.7626 9.20319C12.5429 8.52773 13 7.47445 13 5.9125L13 5.91089C12.9975 5.13212 12.7242 4.38197 12.2325 3.78635C12.3136 3.492 12.3512 3.18678 12.3436 2.88041C12.3334 2.46816 12.2416 2.06202 12.0734 1.68549C12.0131 1.55057 11.8963 1.44921 11.7542 1.40861L11.6169 1.88937C11.7542 1.40861 11.7528 1.40821 11.7523 1.40807L11.7504 1.40752L11.7462 1.4064L11.7372 1.40405C11.7309 1.40245 11.7238 1.40078 11.7161 1.39909C11.7007 1.39571 11.6826 1.39225 11.6617 1.38904C11.6199 1.38261 11.5674 1.37725 11.504 1.37556C11.3769 1.37216 11.2079 1.38354 10.9947 1.42908C10.6026 1.51286 10.0633 1.71168 9.35762 2.14496Z" fill="black"/></svg>

<svg xmlns="http://www.w3.org/2000/svg" viewBox="0 0 15 15" fill="currentColor"><path d="M9.358 2.145a8.209 8.209 0 00-3.716 0c-.706-.433-1.245-.632-1.637-.716a2.17 2.17 0 00-.51-.053 1.258 1.258 0 00-.232.028l-.01.002-.004.002h-.003l.137.481-.137-.48a.5.5 0 00-.32.276 3.12 3.12 0 00-.159 2.101A3.354 3.354 0 002 5.93c0 1.553.458 2.597 1.239 3.268.547.47 1.211.72 1.877.863a2.34 2.34 0 00-.116.958v.598c-.407.085-.689.058-.89-.008-.251-.083-.444-.25-.629-.49a4.798 4.798 0 01-.27-.402l-.057-.093a9.216 9.216 0 00-.224-.354c-.19-.281-.472-.633-.928-.753l-.484-.127-.254.968.484.127c.08.02.184.095.355.346a7.2 7.2 0 01.19.302l.068.11c.094.152.202.32.327.484.253.33.598.663 1.11.832.35.116.748.144 1.202.074V14.5a.5.5 0 00.5.5h4a.5.5 0 00.5-.5v-3.563c0-.315-.014-.604-.103-.873.663-.14 1.322-.39 1.866-.86.78-.676 1.237-1.73 1.237-3.292v-.001a3.354 3.354 0 00-.768-2.125 3.12 3.12 0 00-.159-2.1.5.5 0 00-.319-.277l-.137.48c.137-.48.136-.48.135-.48l-.002-.001-.004-.002-.009-.002a.671.671 0 00-.075-.015 1.261 1.261 0 00-.158-.013 2.172 2.172 0 00-.51.053c-.391.084-.93.283-1.636.716z" fill="currentColor"/></svg>
